X: 33
T: Drowsy Maggie
Z: Will The Whistler
S: https://thesession.org/tunes/27#setting51464
R: reel
M: 4/4
L: 1/8
K: Edor
|:E2BE dEBE|~E2BE AFDF|{D}E2BE dEBE|{c}BABc dcAD:|
~d2fd cdec|defg (3agf (3gfe|defd cdec|BABc dcAc|
defd cdec|defg af (3gfe|afge fdec|BABc dBAD||

